X:1
T:Title
%%score { 1 | ( 2 3 ) }
L:1/8
M:4/4
K:G
V:1 treble nm="Grand Piano"
V:2 treble 
V:3 treble 
V:1
 z4 z2[Q:1/4=100] G2 | B2 B2 BA G2 | [CEG]2 [G,CE]2 [G,B,D]2 [B,DG]2 | %3
 [A,DF]2 [B,DG]2 [CFA]2 [B,G][FA] |[M:3/4] [DGB]6 |[M:1/4] [B,DG]2 | %6
[M:4/4] [DGB]2 [DGB]2 [DGB][DA] [B,DG]2 | [CEG]2 [G,CE]2 [G,B,D]2 [B,DG]2 | F2 G2 B2 A2 | %9
[M:3/4] [B,DG]6 |[M:1/4] [A,DF][A,EG] |[M:4/4] [FA]2 [FA]>[FA] [FA]3 [FB] | %12
 [CFA][B,G] [B,DG]>[B,DG] [B,DG]2 [G,DG]A | B2 B>B B3 [EGc] | [GB][FA] [FA]>[FA] [FA]2 Bc | %15
 d2 d>d d3 B | [EA][EG] [EG]>[Ec] [Ec]2 [Ec][Ec] | [DB]2 [GB][GB] [FA]2 [CFA]2 |[M:3/4] [B,G]6 |] %19
V:2
 z4 z2 [G,B,D]2 | [G,DG]2 [G,DG]2 [DG][CD][K:bass] [G,B,D]2 | C,2 C,2 G,,2 G,,2 | D,2 D,2 D,2 z D | %4
[M:3/4] G,6 |[M:1/4] G,2 |[M:4/4] G,2 G,2 z C G,2 | C,2 C,2 G,,2 G,,2 | %8
 [D,A,D]2 [D,B,D]2 [D,G,D]2 [D,CD]2 |[M:3/4] G,,6 |[M:1/4] D,D, | %11
[M:4/4] [D,D]2 [D,D]>[D,D] [D,D]3 [D,D] | G,,G,, G,,>G,, G,,2 B,,[D,F,D] | %13
 [G,D]2 [G,D]>[G,D] [G,D]3 C, | [D,D][D,D] [D,D]>[D,D] [D,D]2[K:treble] [G,D][G,A,D] | %15
 [G,B,G]2 [G,B,G]>[G,B,G] [G,B,G]3 [G,DG] | [C,C][C,C] [C,C]>[C,G,] [C,G,]2 [C,G,][C,G,] | %17
 [D,G,]2 [D,D][D,D] [D,D]2 D,2 |[M:3/4] G,,6 |] %19
V:3
 x8 | z4 G,2[K:bass] z2 | x8 | z4 z2 D,2 |[M:3/4] x6 |[M:1/4] x2 |[M:4/4] z4 G,2 z2 | x8 | x8 | %9
[M:3/4] x6 |[M:1/4] x2 |[M:4/4] x8 | x8 | x8 | x6[K:treble] x2 | x8 | x8 | x8 |[M:3/4] x6 |] %19

